X: 22780
T: Langstrom's Pony
R: jig
M: 6/8
K: Amixolydian
|:AAA A2e|cAc edB|AAA A2d|BGB dBG|
AAA A2e|cAc efg|faf gfe|dBG Bcd:|

